src/Assets/go.svg

<svg width="24" height="24" viewBox="0 0 24 24" fill="none" xmlns="http://www.w3.org/2000/svg">
<path d="M24 12C24 5.37258 18.6274 0 12 0C5.37258 0 0 5.37258 0 12C0 18.6274 5.37258 24 12 24C18.6274 24 24 18.6274 24 12Z" fill="#D99E20" fill-opacity="0.2"/>
<path d="M13.4092 8.48574C13.4664 8.42806 13.5345 8.38228 13.6095 8.35104C13.6844 8.3198 13.7649 8.30371 13.8461 8.30371C13.9274 8.30371 14.0078 8.3198 14.0828 8.35104C14.1578 8.38228 14.2258 8.42806 14.283 8.48574L17.36 11.5627C17.4176 11.6199 17.4634 11.6879 17.4947 11.7629C17.5259 11.8379 17.542 11.9183 17.542 11.9996C17.542 12.0808 17.5259 12.1613 17.4947 12.2362C17.4634 12.3112 17.4176 12.3793 17.36 12.4365L14.283 15.5134C14.2258 15.5711 14.1578 15.6169 14.0828 15.6481C14.0078 15.6794 13.9274 15.6955 13.8461 15.6955C13.7649 15.6955 13.6844 15.6794 13.6095 15.6481C13.5345 15.6169 13.4664 15.5711 13.4092 15.5134C13.3515 15.4562 13.3057 15.3882 13.2745 15.3132C13.2432 15.2382 13.2272 15.1577 13.2272 15.0765C13.2272 14.9953 13.2432 14.9148 13.2745 14.8398C13.3057 14.7649 13.3515 14.6968 13.4092 14.6396L16.0553 11.9996L13.4092 9.35959C13.3515 9.30238 13.3057 9.23432 13.2745 9.15933C13.2432 9.08434 13.2272 9.0039 13.2272 8.92266C13.2272 8.84143 13.2432 8.76099 13.2745 8.686C13.3057 8.61101 13.3515 8.54295 13.4092 8.48574Z" fill="#D99E20"/>
<path d="M8.79103 8.48965C8.84824 8.43197 8.9163 8.38619 8.99129 8.35494C9.06628 8.3237 9.14671 8.30762 9.22795 8.30762C9.30919 8.30762 9.38962 8.3237 9.46461 8.35494C9.53961 8.38619 9.60767 8.43197 9.66488 8.48965L12.7418 11.5666C12.7995 11.6238 12.8453 11.6918 12.8765 11.7668C12.9077 11.8418 12.9238 11.9223 12.9238 12.0035C12.9238 12.0847 12.9077 12.1652 12.8765 12.2402C12.8453 12.3151 12.7995 12.3832 12.7418 12.4404L9.66488 15.5173C9.60767 15.575 9.53961 15.6208 9.46461 15.652C9.38962 15.6833 9.30919 15.6994 9.22795 15.6994C9.14671 15.6994 9.06628 15.6833 8.99129 15.652C8.9163 15.6208 8.84824 15.575 8.79103 15.5173C8.73335 15.4601 8.68757 15.3921 8.65633 15.3171C8.62508 15.2421 8.609 15.1617 8.609 15.0804C8.609 14.9992 8.62508 14.9187 8.65633 14.8438C8.68757 14.7688 8.73335 14.7007 8.79103 14.6435L11.4372 12.0035L8.79103 9.36349C8.73335 9.30629 8.68757 9.23822 8.65633 9.16323C8.62508 9.08824 8.609 9.00781 8.609 8.92657C8.609 8.84533 8.62508 8.7649 8.65633 8.68991C8.68757 8.61492 8.73335 8.54685 8.79103 8.48965Z" fill="#D99E20"/>
</svg>

<svg xmlns="http://www.w3.org/2000/svg" width="24" height="24" fill="none"><path fill="#D99E20" fill-opacity=".2" d="M24 12c0-6.627-5.373-12-12-12S0 5.373 0 12s5.373 12 12 12 12-5.373 12-12"/><path fill="#D99E20" d="M13.41 8.486a.615.615 0 0 1 .873 0l3.077 3.077a.617.617 0 0 1 0 .874l-3.077 3.076a.614.614 0 0 1-.874 0 .614.614 0 0 1 0-.873L16.055 12 13.41 9.36a.614.614 0 0 1 0-.874M8.791 8.49a.616.616 0 0 1 .874 0l3.077 3.077a.614.614 0 0 1 0 .873l-3.077 3.077a.614.614 0 0 1-.874 0 .615.615 0 0 1 0-.873l2.646-2.64-2.646-2.64a.615.615 0 0 1 0-.874"/></svg>
